TGraph/AXpYpL.svg

<svg xmlns="http://www.w3.org/2000/svg" viewBox="0 0 1200 800" preserveAspectRatio="none" width="1200" height="800">
 <path d="M0,0H1200V800H0Z" style="fill: white;"></path>
 <g>
  <g transform="translate(120,80)">
   <path d="M0,0H960V640H0Z" style="fill: white; stroke: black; stroke-width: 1;"></path>
   <svg x="0" y="0" overflow="hidden" width="960" height="640" viewBox="0 0 960 640">
    <g>
     <path d="M0,587l46,-65l46,-62l46,-60l46,-57l46,-53l46,-49l46,-44l45,-38l46,-34l46,-27l46,-21l46,-14l46,-8l46,-2l46,6l46,11l46,19l46,24l46,31" style="stroke: red; stroke-width: 4; fill: none;"></path>
    </g>
   </svg>
   <g>
    <g>
     <path d="M0,0h960M0,0v24m23,-24v12m23,-12v12m23,-12v12m23,-12v24m23,-24v12m23,-12v12m23,-12v12m23,-12v24m23,-24v12m23,-12v12m23,-12v12m23,-12v24m23,-24v12m23,-12v12m22,-12v12m23,-12v24m23,-24v12m23,-12v12m23,-12v12m23,-12v24m23,-24v12m23,-12v12m23,-12v12m23,-12v24m23,-24v12m23,-12v12m23,-12v12m23,-12v24m23,-24v12m23,-12v12m23,-12v12m23,-12v24m23,-24v12m23,-12v12m23,-12v12m23,-12v24m23,-24v12m23,-12v12m23,-12v12m23,-12v24m23,-24v12" style="stroke: black; stroke-width: 1;"></path>
     <g font-family="Arial" font-size="28" space="preserve" fill="black" text-anchor="middle">
      <text transform="translate(0,-6)">
       0
      </text>
      <text transform="translate(92,-6)">
       0.2
      </text>
      <text transform="translate(184,-6)">
       0.4
      </text>
      <text transform="translate(276,-6)">
       0.6
      </text>
      <text transform="translate(367,-6)">
       0.8
      </text>
      <text transform="translate(459,-6)">
       1
      </text>
      <text transform="translate(551,-6)">
       1.2
      </text>
      <text transform="translate(643,-6)">
       1.4
      </text>
      <text transform="translate(735,-6)">
       1.6
      </text>
      <text transform="translate(827,-6)">
       1.8
      </text>
      <text transform="translate(919,-6)">
       2
      </text>
     </g>
    </g>
    <g transform="translate(960)">
     <path d="M0,0v640M0,639h-18m18,-13h-18m18,-14h-18m18,-13h-18m18,-13h-36m36,-14h-18m18,-13h-18m18,-13h-18m18,-13h-18m18,-14h-36m36,-13h-18m18,-13h-18m18,-14h-18m18,-13h-18m18,-13h-36m36,-14h-18m18,-13h-18m18,-13h-18m18,-14h-18m18,-13h-36m36,-13h-18m18,-14h-18m18,-13h-18m18,-13h-18m18,-14h-36m36,-13h-18m18,-13h-18m18,-14h-18m18,-13h-18m18,-13h-36m36,-13h-18m18,-14h-18m18,-13h-18m18,-13h-18m18,-14h-36m36,-13h-18m18,-13h-18m18,-14h-18m18,-13h-18m18,-13h-36m36,-14h-18m18,-13h-18m18,-13h-18m18,-14h-18m18,-13h-36m36,-13h-18m18,-14h-18m18,-13h-18" style="stroke: black; stroke-width: 1;"></path>
     <g font-family="Arial" font-size="28" space="preserve" fill="black" text-anchor="start">
      <text dy=".4em" transform="translate(4,586)">
       2
      </text>
      <text dy=".4em" transform="translate(4,519)">
       3
      </text>
      <text dy=".4em" transform="translate(4,453)">
       4
      </text>
      <text dy=".4em" transform="translate(4,386)">
       5
      </text>
      <text dy=".4em" transform="translate(4,319)">
       6
      </text>
      <text dy=".4em" transform="translate(4,253)">
       7
      </text>
      <text dy=".4em" transform="translate(4,186)">
       8
      </text>
      <text dy=".4em" transform="translate(4,120)">
       9
      </text>
      <text dy=".4em" transform="translate(4,53)">
       10
      </text>
     </g>
    </g>
   </g>
  </g>
  <g transform="translate(120,4)" font-family="Arial" font-size="40" space="preserve">
   <text fill="black" text-anchor="middle" dy=".8em" transform="translate(480)">
    Option ACP example
   </text>
  </g>
 </g>
</svg>

<svg xmlns="http://www.w3.org/2000/svg" viewBox="0 0 1200 800" preserveAspectRatio="none" width="1200" height="800">
 <path d="M0,0H1200V800H0Z" style="fill: white;"></path>
 <g>
  <g transform="translate(120,80)">
   <path d="M0,0H960V640H0Z" style="fill: white; stroke: black; stroke-width: 1;"></path>
   <svg x="0" y="0" overflow="hidden" width="960" height="640" viewBox="0 0 960 640">
    <g>
     <path d="M0,587l46,-65l46,-62l46,-60l46,-57l46,-53l46,-49l46,-44l45,-38l46,-34l46,-27l46,-21l46,-14l46,-8l46,-2l46,6l46,11l46,19l46,24l46,31" style="stroke: red; stroke-width: 4; fill: none;"></path>
    </g>
   </svg>
   <g>
    <g>
     <path d="M0,0h960M0,0V24M23,0V12M46,0V12M69,0V12M92,0V24M115,0V12M138,0V12M161,0V12M184,0V24M207,0V12M230,0V12M253,0V12M276,0V24M299,0V12M322,0V12M344,0V12M367,0V24M390,0V12M413,0V12M436,0V12M459,0V24M482,0V12M505,0V12M528,0V12M551,0V24M574,0V12M597,0V12M620,0V12M643,0V24M666,0V12M689,0V12M712,0V12M735,0V24M758,0V12M781,0V12M804,0V12M827,0V24M850,0V12M873,0V12M896,0V12M919,0V24M942,0V12" style="stroke: black; stroke-width: 1;"></path>
     <g font-family="Arial" font-size="28" space="preserve" fill="black" text-anchor="middle">
      <text transform="translate(0,-6)">
       0
      </text>
      <text transform="translate(92,-6)">
       0.2
      </text>
      <text transform="translate(184,-6)">
       0.4
      </text>
      <text transform="translate(276,-6)">
       0.6
      </text>
      <text transform="translate(367,-6)">
       0.8
      </text>
      <text transform="translate(459,-6)">
       1
      </text>
      <text transform="translate(551,-6)">
       1.2
      </text>
      <text transform="translate(643,-6)">
       1.4
      </text>
      <text transform="translate(735,-6)">
       1.6
      </text>
      <text transform="translate(827,-6)">
       1.8
      </text>
      <text transform="translate(919,-6)">
       2
      </text>
     </g>
    </g>
    <g transform="translate(960)">
     <path d="M0,0v640M0,639H-18M0,626H-18M0,612H-18M0,599H-18M0,586H-36M0,572H-18M0,559H-18M0,546H-18M0,533H-18M0,519H-36M0,506H-18M0,493H-18M0,479H-18M0,466H-18M0,453H-36M0,439H-18M0,426H-18M0,413H-18M0,399H-18M0,386H-36M0,373H-18M0,359H-18M0,346H-18M0,333H-18M0,319H-36M0,306H-18M0,293H-18M0,279H-18M0,266H-18M0,253H-36M0,240H-18M0,226H-18M0,213H-18M0,200H-18M0,186H-36M0,173H-18M0,160H-18M0,146H-18M0,133H-18M0,120H-36M0,106H-18M0,93H-18M0,80H-18M0,66H-18M0,53H-36M0,40H-18M0,26H-18M0,13H-18" style="stroke: black; stroke-width: 1;"></path>
     <g font-family="Arial" font-size="28" space="preserve" fill="black" text-anchor="start">
      <text dy=".4em" transform="translate(4,586)">
       2
      </text>
      <text dy=".4em" transform="translate(4,519)">
       3
      </text>
      <text dy=".4em" transform="translate(4,453)">
       4
      </text>
      <text dy=".4em" transform="translate(4,386)">
       5
      </text>
      <text dy=".4em" transform="translate(4,319)">
       6
      </text>
      <text dy=".4em" transform="translate(4,253)">
       7
      </text>
      <text dy=".4em" transform="translate(4,186)">
       8
      </text>
      <text dy=".4em" transform="translate(4,120)">
       9
      </text>
      <text dy=".4em" transform="translate(4,53)">
       10
      </text>
     </g>
    </g>
   </g>
  </g>
  <g transform="translate(120,4)" font-family="Arial" font-size="40" space="preserve">
   <text fill="black" text-anchor="middle" dy=".8em" transform="translate(480)">
    Option ACP example
   </text>
  </g>
 </g>
</svg>
